X: 1
T: Polska fr\aan M\"oklinta
O: Trad
N: (Nummer 3 i R\"oda h\"aftet)
S: http://www.v-dalaspelmanslag.se/pdf/vdala035.pdf
M: 3/4
L: 1/16
K: A
|: agfg a2a2 f3a  | agbg e4   B4   | c2cd e2ef g2e2 | gfe^d e2B2 =dcBc |
|  A2a2 g2a2 f3a  | agbg e4   B4   | c2cd e2ef g2e2 | gfe^d e8 :|
|: ecec BdBG A2A2 | cAce dcdf e3e  | ecec BdBG A2A2 |
|  cAce dcdf e3a  | agfg afdf fece | edBG A8 :|

%%sep 1 1 500

